src/assets/duotone/Youtube.svg

<svg width="24" height="24" viewBox="0 0 24 24"  xmlns="http://www.w3.org/2000/svg">
<path opacity="0.4" d="M17 20H7C4 20 2 18 2 15V9C2 6 4 4 7 4H17C20 4 22 6 22 9V15C22 18 20 20 17 20Z" />
<path d="M11.4201 9.49009L13.8901 10.9701C14.8301 11.5401 14.8301 12.4601 13.8901 13.0301L11.4201 14.5101C10.4201 15.1101 9.6001 14.6501 9.6001 13.4801V10.5101C9.6001 9.3501 10.4201 8.89009 11.4201 9.49009Z" />
</svg>

<?xml version="1.0" encoding="UTF-8"?>
<svg width="24" height="24" viewBox="0 0 24 24" xmlns="http://www.w3.org/2000/svg">
 <path d="m17 20h-10c-3 0-5-2-5-5v-6c0-3 2-5 5-5h10c3 0 5 2 5 5v6c0 3-2 5-5 5z" opacity=".4"/>
 <path d="m11.42 9.4901 2.47 1.48c0.94 0.57 0.94 1.49 0 2.06l-2.47 1.48c-1 0.6-1.82 0.14-1.82-1.03v-2.97c0-1.16 0.82-1.62 1.82-1.02z"/>
</svg>
